X:187
U: ~ = !turn!
%%topmargin 3cm
T:Sean Ryan's Fancy Hornpipe
B:Traditional Irish Fiddle Tunes. Randy Miller and Jack Perron.
S:Sean Ryan
Z:Transcribed by Ralph Palmer
R:Hornpipe
M:C|
L:1/8
K:G
z2 | (3.G.G.G BG DGBd | Jg2 fg ((3efg) dB | (3.c.c.c ec B2 dB | ADFA dc BA |
(3.G.G.G BG DGBd | Jg2 fg ((3efg) dB | (3.c.c.c ec B2 dB | ADFA G2 ::
((3def) | gBdf eA^ce | edBG ADFA | GBdB cege | ((3fga) ef dfef |
gBdf eA^ce | edBG ADFA | GBdB cegf | ed ((3cBA) G2 :|]
